austria/municipalities/41813.svg

<?xml version="1.0" encoding="UTF-8"?>
<!DOCTYPE svg PUBLIC "-//W3C//DTD SVG 1.1//EN" "http://www.w3.org/Graphics/SVG/1.1/DTD/svg11.dtd">
<svg xmlns="http://www.w3.org/2000/svg" version="1.1" width="166px" height="207px" style="shape-rendering:geometricPrecision; text-rendering:geometricPrecision; image-rendering:optimizeQuality; fill-rule:evenodd; clip-rule:evenodd" xmlns:xlink="http://www.w3.org/1999/xlink">
<g><path style="opacity:1" fill="#000000" d="M -0.5,-0.5 C 54.8333,-0.5 110.167,-0.5 165.5,-0.5C 165.5,44.5 165.5,89.5 165.5,134.5C 161.239,157.511 149.906,176.344 131.5,191C 120.516,198.576 108.516,203.743 95.5,206.5C 86.8333,206.5 78.1667,206.5 69.5,206.5C 30.0336,197.035 6.70027,172.368 -0.5,132.5C -0.5,88.1667 -0.5,43.8333 -0.5,-0.5 Z"/></g>
<g><path style="opacity:1" fill="#00612a" d="M 3.5,3.5 C 29.5,3.5 55.5,3.5 81.5,3.5C 81.8256,7.88387 81.4922,12.2172 80.5,16.5C 71.0124,22.4841 63.8457,30.4841 59,40.5C 55.8349,53.8879 61.0016,60.5545 74.5,60.5C 74.5,65.5 74.5,70.5 74.5,75.5C 69.456,75.8275 64.456,75.4941 59.5,74.5C 60.5748,71.562 60.7415,68.562 60,65.5C 51.1224,55.4775 41.6224,54.9775 31.5,64C 27.5496,69.951 22.883,75.2843 17.5,80C 12.8452,80.4992 8.17853,80.6658 3.5,80.5C 3.5,54.8333 3.5,29.1667 3.5,3.5 Z"/></g>
<g><path style="opacity:1" fill="#fea700" d="M 83.5,3.5 C 109.5,3.5 135.5,3.5 161.5,3.5C 161.5,29.1667 161.5,54.8333 161.5,80.5C 156.821,80.6658 152.155,80.4992 147.5,80C 142.49,74.9882 137.823,69.6549 133.5,64C 123.921,56.0067 114.755,56.1734 106,64.5C 104.272,67.7589 104.106,71.0922 105.5,74.5C 100.544,75.4941 95.544,75.8275 90.5,75.5C 90.5,70.5 90.5,65.5 90.5,60.5C 103.713,60.1167 108.88,53.45 106,40.5C 101.181,30.5079 94.0141,22.5079 84.5,16.5C 83.5078,12.2172 83.1744,7.88387 83.5,3.5 Z"/></g>
<g><path style="opacity:1" fill="#fea700" d="M 80.5,19.5 C 81.4972,39.6598 81.8305,59.9931 81.5,80.5C 61.4972,80.6666 41.4972,80.5 21.5,80C 26.1667,74.6667 30.8333,69.3333 35.5,64C 44.2322,58.4285 51.7322,59.5952 58,67.5C 58.1924,70.8952 57.3591,74.0618 55.5,77C 62.8258,77.4997 70.1591,77.6663 77.5,77.5C 77.8306,70.1365 77.4973,62.8032 76.5,55.5C 71.2542,58.4416 66.4209,57.7749 62,53.5C 60.4448,47.7895 60.7782,42.1229 63,36.5C 68.0671,29.9313 73.9004,24.2646 80.5,19.5 Z"/></g>
<g><path style="opacity:1" fill="#00612a" d="M 83.5,19.5 C 91.8622,24.3621 98.3622,31.0288 103,39.5C 103.167,41.6667 103.333,43.8333 103.5,46C 104.621,53.7125 101.287,57.5458 93.5,57.5C 91.6161,57.2837 89.9494,56.617 88.5,55.5C 87.5027,62.8032 87.1694,70.1365 87.5,77.5C 94.8409,77.6663 102.174,77.4997 109.5,77C 104.94,67.6276 107.94,62.1276 118.5,60.5C 122.454,60.9024 126.12,62.0691 129.5,64C 134.428,68.704 138.762,73.8707 142.5,79.5C 122.845,80.4996 103.178,80.833 83.5,80.5C 83.5,60.1667 83.5,39.8333 83.5,19.5 Z"/></g>
<g><path style="opacity:1" fill="#fea700" d="M 3.5,83.5 C 8.6278,83.1115 13.6278,83.6115 18.5,85C 22.9523,90.0741 27.2856,95.2408 31.5,100.5C 34.8338,101.831 37.8338,103.665 40.5,106C 48.741,109.139 55.9076,107.639 62,101.5C 63.1515,97.1712 62.3181,93.3379 59.5,90C 64.4889,89.5007 69.4889,89.3341 74.5,89.5C 74.5,109.833 74.5,130.167 74.5,150.5C 76.8333,150.5 79.1667,150.5 81.5,150.5C 81.5,153.833 81.5,157.167 81.5,160.5C 61.7042,160.82 44.0375,166.986 28.5,179C 27.5,179.667 26.5,179.667 25.5,179C 13.9752,167.118 6.80858,152.951 4,136.5C 3.50006,118.836 3.33339,101.17 3.5,83.5 Z"/></g>
<g><path style="opacity:1" fill="#00612a" d="M 21.5,84.5 C 41.3264,83.5029 61.3264,83.1695 81.5,83.5C 81.5,105.167 81.5,126.833 81.5,148.5C 80.1667,148.5 78.8333,148.5 77.5,148.5C 77.5,128.167 77.5,107.833 77.5,87.5C 69.16,87.3336 60.8267,87.5003 52.5,88C 56.2363,90.0685 58.903,93.0685 60.5,97C 58.7824,102.616 54.9491,105.116 49,104.5C 42.668,104.416 37.168,102.25 32.5,98C 28.6947,93.5216 25.0281,89.0216 21.5,84.5 Z"/></g>
<g><path style="opacity:1" fill="#fea700" d="M 83.5,83.5 C 103.503,83.3334 123.503,83.5 143.5,84C 138.691,93.4768 131.358,100.143 121.5,104C 116.64,104.968 111.974,104.468 107.5,102.5C 106.248,100.999 105.248,99.3325 104.5,97.5C 105.911,93.2576 108.577,90.0909 112.5,88C 104.173,87.5003 95.84,87.3336 87.5,87.5C 87.5,107.833 87.5,128.167 87.5,148.5C 86.1667,148.5 84.8333,148.5 83.5,148.5C 83.5,126.833 83.5,105.167 83.5,83.5 Z"/></g>
<g><path style="opacity:1" fill="#00612a" d="M 148.5,83.5 C 152.833,83.5 157.167,83.5 161.5,83.5C 161.667,101.503 161.5,119.503 161,137.5C 157.813,153.395 150.646,167.228 139.5,179C 138.5,179.667 137.5,179.667 136.5,179C 120.94,166.979 103.273,160.812 83.5,160.5C 83.5,157.167 83.5,153.833 83.5,150.5C 85.8333,150.5 88.1667,150.5 90.5,150.5C 90.5,130.167 90.5,109.833 90.5,89.5C 95.5111,89.3341 100.511,89.5007 105.5,90C 100.384,97.6184 102.05,103.285 110.5,107C 119.155,108.34 126.822,106.173 133.5,100.5C 138.292,94.5326 143.292,88.8659 148.5,83.5 Z"/></g>
<g><path style="opacity:1" fill="#fefffe" d="M -0.5,132.5 C 6.70027,172.368 30.0336,197.035 69.5,206.5C 46.1667,206.5 22.8333,206.5 -0.5,206.5C -0.5,181.833 -0.5,157.167 -0.5,132.5 Z"/></g>
<g><path style="opacity:1" fill="#fefffe" d="M 165.5,134.5 C 165.5,158.5 165.5,182.5 165.5,206.5C 142.167,206.5 118.833,206.5 95.5,206.5C 108.516,203.743 120.516,198.576 131.5,191C 149.906,176.344 161.239,157.511 165.5,134.5 Z"/></g>
<g><path style="opacity:1" fill="#00612a" d="M 69.5,163.5 C 73.5,163.5 77.5,163.5 81.5,163.5C 81.5,176.5 81.5,189.5 81.5,202.5C 60.9582,202.888 43.2916,196.055 28.5,182C 40.7018,172.565 54.3685,166.399 69.5,163.5 Z"/></g>
<g><path style="opacity:1" fill="#fea700" d="M 83.5,163.5 C 103.378,163.444 121.044,169.61 136.5,182C 121.614,195.799 103.947,202.632 83.5,202.5C 83.5,189.5 83.5,176.5 83.5,163.5 Z"/></g>
</svg>

<svg xmlns="http://www.w3.org/2000/svg" width="166" height="207" style="shape-rendering:geometricPrecision;text-rendering:geometricPrecision;image-rendering:optimizeQuality;fill-rule:evenodd;clip-rule:evenodd"><path style="opacity:1" d="M-.5-.5h166v135c-4.261 23.011-15.594 41.844-34 56.5-10.984 7.576-22.984 12.743-36 15.5h-26c-39.466-9.465-62.8-34.132-70-74V-.5z"/><path style="opacity:1" fill="#00612a" d="M3.5 3.5h78a43.123 43.123 0 0 1-1 13c-9.488 5.984-16.654 13.984-21.5 24-3.165 13.388 2.002 20.054 15.5 20v15a57.124 57.124 0 0 1-15-1c1.075-2.938 1.242-5.938.5-9-8.878-10.023-18.378-10.523-28.5-1.5a80.005 80.005 0 0 1-14 16c-4.655.5-9.321.666-14 .5v-77z"/><path style="opacity:1" fill="#fea700" d="M83.5 3.5h78v77c-4.679.166-9.345 0-14-.5a160.374 160.374 0 0 1-14-16c-9.579-7.993-18.745-7.827-27.5.5-1.728 3.259-1.894 6.592-.5 10a57.124 57.124 0 0 1-15 1v-15c13.213-.383 18.38-7.05 15.5-20-4.819-9.992-11.986-17.992-21.5-24a43.123 43.123 0 0 1-1-13zM80.5 19.5a930.82 930.82 0 0 1 1 61c-20.003.167-40.003 0-60-.5l14-16c8.732-5.572 16.232-4.405 22.5 3.5.192 3.395-.64 6.562-2.5 9.5 7.326.5 14.66.666 22 .5a121.87 121.87 0 0 0-1-22c-5.246 2.942-10.08 2.275-14.5-2-1.555-5.71-1.222-11.377 1-17 5.067-6.569 10.9-12.235 17.5-17z"/><path style="opacity:1" fill="#00612a" d="M83.5 19.5c8.362 4.862 14.862 11.529 19.5 20l.5 6.5c1.121 7.712-2.213 11.546-10 11.5-1.884-.216-3.55-.883-5-2a121.87 121.87 0 0 0-1 22c7.34.166 14.674 0 22-.5-4.56-9.372-1.56-14.872 9-16.5 3.954.402 7.62 1.57 11 3.5a90.842 90.842 0 0 1 13 15.5 871.1 871.1 0 0 1-59 1v-61z"/><path style="opacity:1" fill="#fea700" d="M3.5 83.5c5.128-.388 10.128.112 15 1.5a452.93 452.93 0 0 1 13 15.5 31.005 31.005 0 0 1 9 5.5c8.241 3.139 15.408 1.639 21.5-4.5 1.151-4.329.318-8.162-2.5-11.5 4.989-.5 9.989-.666 15-.5v61h7v10c-19.796.32-37.462 6.486-53 18.5-1 .667-2 .667-3 0C13.975 167.118 6.809 152.951 4 136.5c-.5-17.664-.667-35.33-.5-53z"/><path style="opacity:1" fill="#00612a" d="M21.5 84.5a900.574 900.574 0 0 1 60-1v65h-4v-61c-8.34-.166-16.673 0-25 .5 3.736 2.069 6.403 5.069 8 9-1.718 5.616-5.55 8.116-11.5 7.5-6.332-.084-11.832-2.25-16.5-6.5a417.413 417.413 0 0 1-11-13.5z"/><path style="opacity:1" fill="#fea700" d="M83.5 83.5c20.003-.167 40.003 0 60 .5-4.809 9.477-12.142 16.143-22 20-4.86.968-9.526.468-14-1.5a18.916 18.916 0 0 1-3-5c1.411-4.242 4.077-7.41 8-9.5-8.327-.5-16.66-.666-25-.5v61h-4v-65z"/><path style="opacity:1" fill="#00612a" d="M148.5 83.5h13c.167 18.003 0 36.003-.5 54-3.187 15.895-10.354 29.728-21.5 41.5-1 .667-2 .667-3 0-15.56-12.021-33.227-18.188-53-18.5v-10h7v-61c5.011-.166 10.011 0 15 .5-5.116 7.618-3.45 13.285 5 17 8.655 1.34 16.322-.827 23-6.5a241.474 241.474 0 0 1 15-17z"/><path style="opacity:1" fill="#fefffe" d="M-.5 132.5c7.2 39.868 30.534 64.535 70 74h-70v-74zM165.5 134.5v72h-70c13.016-2.757 25.016-7.924 36-15.5 18.406-14.656 29.739-33.489 34-56.5z"/><path style="opacity:1" fill="#00612a" d="M69.5 163.5h12v39c-20.542.388-38.208-6.445-53-20.5 12.202-9.435 25.868-15.601 41-18.5z"/><path style="opacity:1" fill="#fea700" d="M83.5 163.5c19.878-.056 37.544 6.11 53 18.5-14.886 13.799-32.553 20.632-53 20.5v-39z"/></svg>
